X: 16589
T: Hand Me Down The Tackle
R: reel
M: 4/4
K: Dmajor
|:dD D2 FAAF|dgfd edBc|dD D2 FAAF|GFEF GABc|
dD D2 FAAF|dgfd ed (3Bcd|fdec dcBA|G3F GABc:|
|:de (3fed AdfA|dfed cdec|de (3fed Adfd|BGEF GABc|
de (3fed AdfA|dfed cdeg|fdec dcBA|G3F GABc:|

